icon_installer/data/icons/scalable/actions/show-paper-symbolic.svg

<?xml version="1.0" encoding="UTF-8"?>
<svg height="16px" viewBox="0 0 16 16" width="16px" xmlns="http://www.w3.org/2000/svg">
    <g fill="#2e3436">
        <path d="m 8 2 v 5 h 5 z m 0 0"/>
        <path d="m 2 13 c 0 1.660156 1.339844 3 3 3 h 6 c 1.660156 0 3 -1.339844 3 -3 v -6 c 0 -0.90625 -0.359375 -1.773438 -1 -2.414062 l -2.585938 -2.585938 c -0.640624 -0.640625 -1.507812 -1 -2.414062 -1 h -3 c -1.660156 0 -3 1.339844 -3 3 z m 3 -10 h 3 c 0.375 0 0.734375 0.148438 1 0.414062 l 2.585938 2.585938 c 0.265624 0.265625 0.414062 0.625 0.414062 1 v 6 c 0 0.546875 -0.453125 1 -1 1 h -6 c -0.546875 0 -1 -0.453125 -1 -1 v -9 c 0 -0.546875 0.453125 -1 1 -1 z m 0 0"/>
    </g>
</svg>

<svg xmlns="http://www.w3.org/2000/svg" width="16" height="16"><g fill="#2e3436"><path d="M8 2v5h5zm0 0"/><path d="M2 13c0 1.66 1.34 3 3 3h6c1.66 0 3-1.34 3-3V7c0-.906-.36-1.773-1-2.414L10.414 2C9.774 1.36 8.906 1 8 1H5C3.34 1 2 2.34 2 4zM5 3h3c.375 0 .734.148 1 .414L11.586 6c.266.266.414.625.414 1v6c0 .547-.453 1-1 1H5c-.547 0-1-.453-1-1V4c0-.547.453-1 1-1zm0 0"/></g></svg>
